X: 21263
M: C|
L: 1/8
K: Bb
[1 GBFD C/C/C C :|[2 dgfd c/c/c c :|\
g | fdde fdge |
fdde f2fg | fdde fdge | fddB c2c>g |\
fdde fdge | fdde f2fg/a/ | bfge fdec | BGFD C/C/C C |]


